src/main/resources/icons/AllIcons/codeWithMe/cwmForceFollowMe.svg

<!-- Copyright 2000-2021 JetBrains s.r.o. Use of this source code is governed by the Apache 2.0 license that can be found in the LICENSE file. -->
<svg xmlns="http://www.w3.org/2000/svg" width="16" height="16" viewBox="0 0 16 16">
  <g fill-rule="evenodd">
    <path fill="#6E6E6E" d="M5 2L2 2 2 13 5 9.982zM3.41 13L2.416 14 7 14 7 13z"/>
    <path fill="#EDA200" d="M8.9602,10.6924 L9.9132,9.8074 L7.7732,7.5004 L9.9132,5.1924 L8.9602,4.3074 L6.0002,7.5004 L8.9602,10.6924 Z M10.0002,7.5004 L12.9602,4.3074 L13.9132,5.1924 L11.7732,7.5004 L13.9132,9.8074 L12.9602,10.6924 L10.0002,7.5004 Z"/>
  </g>
</svg>

<svg xmlns="http://www.w3.org/2000/svg" width="16" height="16" viewBox="0 0 16 16"><rect id="frame" width="16" height="16" fill="none"/><g fill-rule="evenodd"><path fill="#6E6E6E" d="M5 2H2v11l3-3.018zM3.41 13l-.994 1H7v-1z"/><path fill="#EDA200" d="M8.96 10.692l.953-.885L7.773 7.5l2.14-2.308-.953-.885L6 7.5l2.96 3.192zM10 7.5l2.96-3.193.953.885-2.14 2.308 2.14 2.307-.953.885L10 7.5z"/></g></svg>
